X:0238
T:2d. Quick Step 2d. Battn. Royals
M:6/8
L:1/8
Q:3/8=86
I: :: ::
Z:Jack Campin * www.campin.me.uk * 2009
K:D
a|agf f2a |gfe e2g|fed edc|ddd d2:|
A|A2A AB=c|BAB G2B|B2B Bcd|cBc A2
a|agf f2a |gfe e2g|fed edc|ddd d2:|

